assets/icons/requirements.svg

<svg width="20" height="20" viewBox="0 0 20 20" fill="none" xmlns="http://www.w3.org/2000/svg">
<path d="M2 10C2 6.2288 2 4.3432 3.1712 3.1712C4.344 2 6.2288 2 10 2C13.7712 2 15.6568 2 16.828 3.1712C18 4.344 18 6.2288 18 10C18 13.7712 18 15.6568 16.828 16.828C15.6576 18 13.7712 18 10 18C6.2288 18 4.3432 18 3.1712 16.828C2 15.6576 2 13.7712 2 10Z" stroke="currentColor" stroke-width="1.2"/>
<path d="M5.20001 13.04L6.11441 14L8.40001 11.6M5.20001 7.44L6.11441 8.4L8.40001 6" stroke="currentColor" stroke-width="1.2" stroke-linecap="round" stroke-linejoin="round"/>
<path d="M10.8 7.60001H14.8M10.8 13.2H14.8" stroke="currentColor" stroke-width="1.2" stroke-linecap="round"/>
</svg>

<svg xmlns="http://www.w3.org/2000/svg" width="20" height="20" fill="none" viewBox="0 0 20 20"><path stroke="currentColor" stroke-width="1.2" d="M2 10c0-3.771 0-5.657 1.171-6.829C4.344 2 6.23 2 10 2s5.657 0 6.828 1.171C18 4.344 18 6.23 18 10s0 5.657-1.172 6.828C15.658 18 13.771 18 10 18s-5.657 0-6.829-1.172C2 15.658 2 13.771 2 10Z"/><path stroke="currentColor" stroke-linecap="round" stroke-linejoin="round" stroke-width="1.2" d="m5.2 13.04.914.96L8.4 11.6M5.2 7.44l.914.96L8.4 6"/><path stroke="currentColor" stroke-linecap="round" stroke-width="1.2" d="M10.8 7.6h4m-4 5.6h4"/></svg>
